X:1
T: George Baillie
C:Niel Gow
R:Strathspey
Q: 128
K:F
M:4/4
L:1/16
|:f2|cF3 c3A cF3 f3d|cF3 c3A G4 Gf3|cF3 c3A cF3 a3g|fd3 c3A F4 F2f2|
cF3 c3A cF3 f3d|cF3 c3A G4 Gf3|cF3 c3A cF3 a3g|fd3 c3A F4 F2c2|
f3g a3g f3c a3g|f3d c3A G4 G3c|f3g a3g f3c a3g|fd3 c3A F4 F3c|
f3g a3g f3c a3g|f3d c3A G4 G3A|Fc3 A3c Fa3 ga3|f3d c3A F6:|
